Sources/FrostedUI/Resources/Icons.xcassets/bank12.imageset/bank-12.svg

<svg width="12" height="12" viewBox="0 0 12 12" fill="none" xmlns="http://www.w3.org/2000/svg" data-fui-icon="true">
  <path
    d="M5.52734 0.168945C5.83017 0.0451851 6.16983 0.0451909 6.47266 0.168945L6.62012 0.240234L11.1182 2.81055C11.6633 3.12207 11.9999 3.70219 12 4.33008V4.75C12 5.30229 11.5523 5.75 11 5.75V8.66992C11.5909 8.9509 12 9.55215 12 10.25C12 11.2165 11.2165 12 10.25 12H1.75C0.783502 12 0 11.2165 0 10.25C2.00958e-05 9.55215 0.409084 8.9509 1 8.66992V5.75C0.447715 5.75 0 5.30228 0 4.75V4.33008C0.000106105 3.70219 0.336665 3.12207 0.881836 2.81055L5.37988 0.240234L5.52734 0.168945ZM1.75 10C1.61195 10 1.50003 10.112 1.5 10.25C1.5 10.3881 1.61193 10.5 1.75 10.5H10.25C10.3881 10.5 10.5 10.3881 10.5 10.25C10.5 10.112 10.3881 10 10.25 10H1.75ZM2.5 8.5H5.25V5.75H2.5V8.5ZM6.75 8.5H9.5V5.75H6.75V8.5ZM1.62598 4.11328C1.57232 4.14394 1.53404 4.19325 1.51465 4.25H10.4854C10.466 4.19324 10.4277 4.14394 10.374 4.11328L6 1.61328L1.62598 4.11328Z"
    fill="currentColor"
  />
</svg>

<svg xmlns="http://www.w3.org/2000/svg" width="12" height="12" fill="none" data-fui-icon="true" viewBox="0 0 12 12"><path fill="currentColor" d="M5.527.169a1.25 1.25 0 0 1 .946 0L6.62.24l4.498 2.57c.545.312.882.892.882 1.52v.42a1 1 0 0 1-1 1v2.92a1.749 1.749 0 0 1-.75 3.33h-8.5A1.75 1.75 0 0 1 1 8.67V5.75a1 1 0 0 1-1-1v-.42c0-.628.337-1.208.882-1.52L5.38.24zM1.75 10a.25.25 0 0 0 0 .5h8.5a.25.25 0 1 0 0-.5zm.75-1.5h2.75V5.75H2.5zm4.25 0H9.5V5.75H6.75zM1.626 4.113a.25.25 0 0 0-.111.137h8.97a.25.25 0 0 0-.111-.137L6 1.613z"/></svg>
